X:1
T: Master John Gatherer
C:Alexander Walker
R:Strathspey
Q: 128
K:D
M:4/4
L:1/16
|:A,2|D3E F3D B,B,B,2 B,4|FA3 A3B d3e f3d|e3d f3d e3d B3d|AF3 d3F E4 D2A,2|
D3E F3D B,B,B,2 B,4|FA3 A3B d3e f3d|e3d f3d e3d B3d|AF3 d3F E4 D2f2|
a3b a3f be3 e3f|a3b a3f d3e f3d|d3A BAGF B3B, B,3A,|DD3 A3F E4 D3f|
a3b a2f2 b3e e2f2|a3b f3a e3f d3e|B3d F3A B3B, B,3A,|DD3 A3F E4 D2:|
